X: 3
T: Mountains Of Mourne, The
Z: ceolachan
S: https://thesession.org/tunes/1858#setting15291
R: reel
M: 4/4
L: 1/8
K: Gmaj
d3 B dc BA | G2 A2 E2 GE | D3 E G2 AB | c6 Bc |d2 Bc dc BA | G2 AG EF/E/ G/F/E | D3 E G2 F2 | G6 :|B3 A G2 AB | c2 d2 d2 g>e | d3 B G2 AB | c2 B2 A2 AB/c/ |d/c/d/e/ d>e dc B>A | G2 (3AGF E2 (3GFE | D3 E G2 A2 | G6 GA |B>c BA GA/G/ AB | c>B ce d2 ge | d2 c/B/A GA/G/ AB | cd/c/ Bc/B/ A2 A/B/c |d3 B dc BA | G2 A2 E2 GE | D3 E G2 G2 | G6 ||
